icons/key-asterisk-16.svg

<svg xmlns="http://www.w3.org/2000/svg" width="16" height="16" viewBox="0 0 16 16">
  <defs/>
  <path d="M0,2.75 C0,1.231 1.231,0 2.75,0 L13.25,0 C14.769,0 16,1.231 16,2.75 L16,13.25 C16,14.769 14.769,16 13.25,16 L2.75,16 C1.231,16 0,14.769 0,13.25 Z M2.75,1.5 C2.06,1.5 1.5,2.06 1.5,2.75 L1.5,13.25 C1.5,13.94 2.06,14.5 2.75,14.5 L13.25,14.5 C13.94,14.5 14.5,13.94 14.5,13.25 L14.5,2.75 C14.5,2.06 13.94,1.5 13.25,1.5 Z"/>
  <path d="M8,4 A0.75 0.75 0 0 1 8.75,4.75 L8.75,6.7 L10.44,5.725 A0.75 0.75 0 0 1 11.19,7.025 L9.5,8 L11.19,8.976 A0.75 0.75 0 0 1 10.44,10.274 L8.75,9.3 L8.75,11.251 A0.75 0.75 0 0 1 7.25,11.251 L7.25,9.299 L5.56,10.275 A0.75 0.75 0 0 1 4.81,8.975 L6.5,8 L4.81,7.025 A0.75 0.75 0 0 1 5.56,5.725 L7.25,6.701 L7.25,4.75 A0.75 0.75 0 0 1 8,4 Z"/>
</svg>

<svg xmlns="http://www.w3.org/2000/svg" width="16" height="16" viewBox="0 0 16 16"><path d="M0 2.75A2.75 2.75 0 012.75 0h10.5A2.75 2.75 0 0116 2.75v10.5A2.75 2.75 0 0113.25 16H2.75A2.75 2.75 0 010 13.25zM2.75 1.5c-.69 0-1.25.56-1.25 1.25v10.5c0 .69.56 1.25 1.25 1.25h10.5c.69 0 1.25-.56 1.25-1.25V2.75c0-.69-.56-1.25-1.25-1.25z"/><path d="M8 4a.75.75 0 01.75.75V6.7l1.69-.975a.75.75 0 01.75 1.3L9.5 8l1.69.976a.75.75 0 01-.75 1.298L8.75 9.3v1.951a.75.75 0 01-1.5 0V9.299l-1.69.976a.75.75 0 01-.75-1.3L6.5 8l-1.69-.975a.75.75 0 01.75-1.3l1.69.976V4.75A.75.75 0 018 4z"/></svg>
